X:1
T:The Song of Christmas
T:The Song of Christmas
T:Gideon Froelich
T:Marian Froelich, 1901
T:Public Domain Courtesy of the Cyber Hymnal™
T:Public Domain Courtesy of the Cyber Hymnal™
C:Gideon Froelich
Z:Public Domain
Z:Courtesy of the Cyber Hymnal™
%%score ( 1 2 ) ( 3 4 )
L:1/8
Q:1/4=90
M:4/4
K:Ab
V:1 treble 
V:2 treble 
V:3 bass 
V:4 bass 
V:1
 EcBA | (E3 E) FGABc |!>(! c3!>)! F2 FFdc | (B3 B) =ABcBE | c3- c2 cc=Bc | G4 AB | cdc | %7
w: 1.~I come from the|East * on the wings of the|morn- ing, The stars on my|path- * way made lu- mi- nous|night; * The glo- ry of|ag- es my|brow is a-|
w: 2.~Where far in the|Or- * ient the green palms are|wav- ing, They sing of my|com- * ing with rap- tu- rous|joy; * Where pines in the|north are the|win- ter blasts|
w: 3.~The dark mines of|earth * ne’er my jew- els have|yield- ed, My pearls ne’er were|rocked * in the o- cean’s deep|cave; * The heart of the|Fa- ther this|trea- sure has|
w: 4.~With ev- er- greens|wreathed * as the type of im-|mor- tals, I, Christ- mas, ap-|pear * on the wings of the|morn; * ’Twixt Heav- en and|earth, wide a-|pace swing the|
 c3 F2 GAGF | (B3 B) =A"^riten."Bc=df | e3- e2 ||"^Refrain" EEAc | [Ae]3 [Ae]2 [Ac][Ac][GB][Ac] | %12
w: dorn- ing, By choirs I’m at-|tend- * ed from heav- en- ly|light. *|||
w: brav- ing, They chant of the|birth * of sweet Beth- le- hem’s|boy. *|Oh, ju- bi- lant|cho- rus, re- peat it a-|
w: shield- ed, Till time was ful-|filled * and His Son came to|save. *|||
w: por- tals, To- day to the|world * is a great Sav- ior|born. *|||
 d3- [Gd]2 EEGB | [Gd]3 [Gd]2 [Gd][Ge][Gd][GB] | c3- [Ac]2 EEAB | [Ac]3 [Ac]2 [Ac][_Ge][Gc][GA] | %16
w: ||||
w: gain, To- day is the ad-|vent of Christ to all men;|Oh, ju- bi- lant cho- rus,|oh, hap- py re- frain, It|
w: ||||
w: ||||
 d3- [Fd]2 FF[Fc][FB] | [EA]3 (E A)[Ac][Ad][Gc][GB] | A3- [EA]2 |] %19
w: |||
w: e- choes its mu- sic o’er|o- cean * and main. * *||
w: |||
w: |||
V:2
 x4 | x9 | x9 | x9 | x9 | x6 | x3 | x9 | x9 | x5 || EEAc | x9 | (GGG x E)EGB x | x9 | %14
 (AAA x E)EAB x | x9 | (FFF x F)F x3 | x3 E2 x4 | EEE x2 |] %19
V:3
 z A,,E,A, | ([E,A,C][E,A,C][E,A,C] [E,A,C]2) z A,,E,A, | (D,[F,A,][F,A,] [D,F,A,]2) z B,,F,B, | %3
w: ~ ~ ~|~ * * * ~ ~ ~|~ * * * ~ ~ ~|
 ([E,G,D][E,G,D][E,G,D] [E,G,D]2) z E,G,D | (A,,[E,A,C][E,A,C] [E,A,C]2) z A,,E,A, | %5
w: ~ * * * ~ ~ ~|~ * * * ~ ~ ~|
 ([=E,G,C][E,G,C][E,G,C]) [E,G,C]2 z | C,G,B, | ([F,A,C][E,A,C][E,A,C]) [E,A,C]2 z F,,C,F, | %8
w: ~ * * ~|~ ~ ~|~ * * ~ ~ ~ ~|
 ([B,,E,G,][B,,E,G,][B,,E,G,]) [B,,E,G,]2 z [B,,F,A,][B,,F,A,][B,,F,A,] | %9
w: ~ * * ~ ~ ~ ~|
 ([E,G,][E,G,B,][E,G,B,] [E,G,B,]2) || E,E,A,C | [A,C]3 [A,C]2 [A,E][A,E][C,E][A,E] | %12
w: ~ * * *|~ ~ ~ ~|~ ~ ~ ~ ~ ~|
 [B,E][B,E][G,E] [E,E]2 E,E,G,B, | [E,B,]3 [E,B,]2 [E,B,][E,B,][E,E][E,E] | %14
w: and a- gain ~ ~ ~ ~ ~|~ ~ ~ ~ ~ ~|
 [A,E][E,E][C,E] [A,,E]2 E,E,A,B, | [A,E]3 [A,E]2 [A,E][A,C][A,E][A,C] | %16
w: to all men; ~ ~ ~ ~ ~|~ ~ ~ ~ ~ ~|
 [D,D][D,A,][D,A,] [D,A,]2 [D,A,][D,A,][D,A,][D,D] | [E,C]3 [E,C]2 [E,E][E,F][E,E][E,D] | %18
w: hap- py re- frain, ~ ~ ~ ~|~ ~ ~ ~ ~ o’er|
 [A,C][E,C][C,C] [A,,C]2 |] %19
w: o- cean and main.|
V:4
 x4 | x9 | x9 | x9 | x9 | x6 | x3 | x9 | x9 | x5 || E,E,A,C | x9 | x5 E,E,G,B, | x9 | x5 E,E,A,B, | %15
 x9 | x9 | x9 | x5 |] %19

